X:8
T:Nanny's Choice. JJo8.008
B:J.Johnson Choice Collection Vol 8 1758
Z:vmp.Simon Wilson 2013 www.village-music-project.org.uk
M:C|
L:1/8
Q:1/2=80
K:A
c/d/|eca2ecdf|ecBA{c}TB3D|CEAB cAdB|ecacTB3c/d/|
eca2ecdf|ecBA{c}TB3D|CEAB cfed|c2TB2A3:|
|:c|BEdB cAec|BEdB{c}Tc3A|BEdB cAec|(3agf (3edc{c}TB3c|
BEdB cAec|BEdB{c}c3A|BEdB cfed|c2TB2A3:|
